X: 256
T: Sto Mi E Milelo
B: steve song book
B: kameruka choir
M:2/4
L:1/8
Q: 1/4=100
K:D
V:1 
ABBc|dcdc|ABBc|d2c2|
d4|cdcd|cBB2|d4|cdcd|cBB2-|B4||
W: Sto mi o milelo male
W: Sto mi o milelo
W: E sto mi o milelo
W: E sto mi o milelo
% abcbook-tune_id 62a1e116c9fc4a8f80c10ba7


% abcbook-boost 0
% abcbook-tablature 
% abcbook-transpose 
% abcbook-lastupdated 1654859608921
% abcbook-soundfonts 
% abcbook-repeats 1


